!!!!SEGMENT: Distler_Jahrkreis_27_Wir-glauben-an-Gott-den-Vater_3v.krn
!!!COM: Distler, Hugo
!!!CDT: 1908-1942
!!!OPR@@DE: Der Jahrkreis
!!!OPR@EN: The Year Cycle
!!!OTL@@DE: Wir glauben an Gott, den Vater
!!!OTL@EN: We believe in God, the Father
!!!OPS: 5
!!!ONM: 27
**kern	**text	**kern	**text	**kern	**text
*part3	*part3	*part2	*part2	*part1	*part1
*staff3	*staff3	*staff2	*staff2	*staff1	*staff1
*Ialto	*	*Isoprn	*	*Isoprn	*
*clefG2	*	*clefG2	*	*clefG2	*
*k[f#]	*	*k[f#]	*	*k[f#]	*
*MM120	*	*MM120	*	*MM120	*
4B	Wir	4b	Wir	4b	Wir
=1	=1	=1	=1	=1	=1
*M4/4	*	*M4/4	*	*M4/4	*
2c	glau-	2cc	glau-	2cc	glau-
4d	ben	4dd	ben	4dd	ben
4B	an	4b	an	4b	an
=2	=2	=2	=2	=2	=2
*M6/4	*	*M6/4	*	*M6/4	*
(2e	Gott,_	(2ee	Gott,_	(2ee	Gott,_
4d)	.	4dd)	.	4dd)	.
4B	den	4b	den	4b	den
2c	Va-	2cc	Va-	2cc	Va-
=3	=3	=3	=3	=3	=3
4B,	ter,	2b	ter,	1.b	ter,
4B	all-	.	.	.	.
2c	maech-	4r	.	.	.
.	.	4f#	all-	.	.
4d	ti-	2g	maech-	.	.
4B	gen	.	.	.	.
=4	=4	=4	=4	=4	=4
(2d	Herrn_	4a	ti-	4r	.
.	.	2f#,	gen,	4b	all-
4c)	.	.	.	2cc	maech-
4B	und	4e	all-	.	.
*^		*	*	*	*	*
2A	2A	Schoep-	2fn	maech-	4dd	ti-
.	.	.	.	.	4b	gen
!!LO:LB:g=original
=5	=5	=5	=5	=5	=5	=5
2B	2G	fer,	4g	ti-	(2dd	Herrn_
*v	*v	*	*	*	*	*
.	.	4e	gen	.	.
2r	.	4g	Herrn	4cc)	.
.	.	4g	und	4b	und
4c	der	2fn	Schoep-	2a	Schoep-
4d	im	.	.	.	.
=6	=6	=6	=6	=6	=6
(4.e	An-	2c	fer,	4g,	fer,
.	.	.	.	4g	der
8d)	.	.	.	.	.
4c	be-	4r	.	4a	im
4d,	ginn,	2.r	.	(4.b	An-
4d	der	.	.	.	.
.	.	.	.	8a)	.
4e	im	.	.	4g	be-
=7	=7	=7	=7	=7	=7
4.fn	An-	4r	.	(2a	ginn_
.	.	4a	der	.	.
8e	be-	.	.	.	.
4d	ginn	4a	im	4g)	.
2d	liess	4.a	An-	4f#X	liess
.	.	.	.	2e	wer-
.	.	8a	be-	.	.
4c#	wer-	4a	ginn	.	.
!!LO:LB:g=original
=8	=8	=8	=8	=8	=8
*M4/4	*	*M4/4	*	*M4/4	*
2d	den	4a	liess	4f#,	den
.	.	4b	wer-	2g	durch
2r	.	4b,	den	.	.
.	.	[4b	durch_	4a	sein
=9	=9	=9	=9	=9	=9
2r	.	4b]	.	2b	Wort
.	.	4cc#	sein	.	.
4G	durch	4dd	Wort	[2b	Him-
4A	sein	([4dd	Him-	.	.
=10	=10	=10	=10	=10	=10
2B	Wort	8ddL]	.	4b]	.
.	.	8cc#	.	.	.
.	.	8b	.	4g	mel
.	.	8cc#	.	.	.
4B	Him-	8dd	.	2a	und
.	.	8eeJ	.	.	.
[4B	mel_	[4dd	.	.	.
=11	=11	=11	=11	=11	=11
4B]	.	8dd])	.	(2g	Er-
.	.	8cc#	mel	.	.
4G	und	4b	und	.	.
*	*	*	*	*^		*
2A	Er-	2a	Er-	2f#)	2f#)	.
=12	=12	=12	=12	=12	=12	=12
*M6/4	*	*M6/4	*	*M6/4	*M6/4	*
1e	den.	1b	den.	1g#	1e	den.
*	*	*	*	*v	*v	*
!!LO:LB:g=original
=13||	=13||	=13||	=13||	=13||	=13||
2r	.	4e	Und	2r	.
.	.	4fn	an	.	.
=14	=14	=14	=14	=14	=14
*	*	*M4/4	*	*M4/4	*
1r	.	4g	sei-	4b	Und
.	.	4e	nen	4cc	an
.	.	2a	Sohn,	4dd	sei-
.	.	.	.	4b	nen
=15	=15	=15	=15	=15	=15
*	*	*M6/4	*	*M6/4	*
1.r	.	(4.g	Je-	4ee	Sohn,
.	.	.	.	(4.dd	Je-
.	.	8fn	.	.	.
.	.	4e	.	.	.
.	.	.	.	8cc	.
.	.	2g)	.	4b)	.
.	.	.	.	2a	sum
.	.	4f#	sum	.	.
=16	=16	=16	=16	=16	=16
1.r	.	2.g	Christ,	4b,	Christ,
.	.	.	.	4b	un-
.	.	.	.	4cc	sern
.	.	4r	.	2dd	Her-
.	.	4d	un-	.	.
.	.	4e	sern	[4b	ren,_
!!LO:LB:g=original
=18	=18	=18	=18	=18	=18
*	*	*M8/4	*	*M8/4	*
1r	.	2g	Her-	4b]	.
.	.	.	.	4b	un-
.	.	2e,	ren,	4cc	sern
.	.	.	.	2dd	Her-
1r	.	4d	un-	.	.
.	.	4e	sern	4b	ren,
.	.	2g	Her-	4b	der
.	.	.	.	4ee	ihm
=18	=18	=18	=18	=18	=18
*	*	*M3/4	*	*M3/4	*
2.r	.	4e	ren,	(4cc	gleich_
.	.	4e	der	4.b	.
.	.	4e	ihm	.	.
.	.	.	.	8a	.
=19	=19	=19	=19	=19	=19
*	*	*M6/4	*	*M6/4	*
1.r	.	2d	gleich	8bL	.
.	.	.	.	8ccJ	.
.	.	.	.	4.dd	.
.	.	2e,	ist	.	.
.	.	.	.	8cc	.
.	.	.	.	4b	.
.	.	4c	in	2a)	.
.	.	4d	der	.	.
=20	=20	=20	=20	=20	=20
*	*	*M4/4	*	*M4/4	*
1r	.	2e	Gott-	2g,	ist
.	.	4d	heit	4g	in
.	.	4e	und	4a	der
=21	=21	=21	=21	=21	=21
1r	.	4d	der	2b	Gott-
.	.	(4.c	Herr-	.	.
.	.	.	.	4g	heit
.	.	8B	.	.	.
.	.	4A	.	4a	und
!!LO:LB:g=original
=22	=22	=22	=22	=22	=22
1r	.	4B)	.	4g	der
.	.	4B	lich	(4.f#	Herr-
.	.	4A,	keit,	.	.
.	.	.	.	8e	.
.	.	4d	aus	[4d	.
=23	=23	=23	=23	=23	=23
1r	.	4e	ihm	4d])	.
.	.	4g	ge-	4c#	lich-
.	.	(4.f#	born,_	4d,	keit,
.	.	.	.	4g	aus
.	.	8e	.	.	.
=24	=24	=24	=24	=24	=24
1r	.	4d),	.	4a	ihm
.	.	4d	aus	4cc	ge-
.	.	4e	ihm	(4.b	born_
.	.	4g	ge-	.	.
.	.	.	.	8a)	.
=25	=25	=25	=25	=25	=25
1r	.	(4.f#	born_	4g	von
.	.	.	.	4a	E-
.	.	8e	.	.	.
.	.	4d)	.	2f#	wig-
.	.	4cn	von	.	.
=26	=26	=26	=26	=26	=26
1r	.	(4.e	E-	[1e	keit._
.	.	8dL	.	.	.
.	.	8e	.	.	.
.	.	8gJ	.	.	.
.	.	[4a	.	.	.
=27	=27	=27	=27	=27	=27
*	*	*M6/4	*	*M6/4	*
1.r	.	4a]	.	1.e]	.
*	*	*^		*	*	*
.	.	4g	4g	wig-	.	.
.	.	1b	(2f#	keit.	.	.
.	.	.	2g#)	.	.	.
*	*	*v	*v	*	*	*
!!LO:LB:g=original
=28||	=28||	=28||	=28||	=28||	=28||
*M4/4	*	*M4/4	*	*M4/4	*
4g	Glau-	4b	Glau-	4b	Glau-
4f#	ben	4b	ben	4cc	ben
4e	auch	4a	auch	4dd	auch
4d	an'	4g	an'	4b	an'
=29	=29	=29	=29	=29	=29
*M5/4	*	*M5/4	*	*M5/4	*
(2c	hei-	(2cc	hei-	(2ee	hei-
2G)	.	4.b)	.	4.dd	.
.	.	8a	li-	8cc)	.
*	*	*	*	*^		*
4G	li-	4g	gen	4b	4b	li-
=30	=30	=30	=30	=30	=30	=15
*M4/4	*	*M4/4	*	*M4/4	*M4/4	*
2A	gen	2.e,	Geist,	2cc	2a	gen
2e	Geist,	.	.	2b	2g	Geist,
.	.	4e	von	.	.	.
*	*	*	*	*v	*v	*
=31	=31	=31	=31	=31	=31
2r	.	2fn	wel-	4r	.
.	.	.	.	4b	von
4r	.	4e	chem	2cc	wel-
4e	von	4e	die	.	.
=32	=32	=32	=32	=32	=32
2fn	wel-	2a	Schrift	4dd	chem
.	.	.	.	4b	die
4g	chem	(4.g	al-	4dd	Schrift
4e	die	.	.	[(4cc	al-
.	.	8fn	.	.	.
!!LO:LB:g=original
=33	=33	=33	=33	=33	=33
4a	Schrift	4e	.	4cc]	.
2g	al-	4c)	.	4b)	.
.	.	2d	ler-	2a	ler-
4f#X	ler-	.	.	.	.
=34	=34	=34	=34	=34	=34
4g,	meist	4g,	meist	4g,	meist
4g	und	4.g	und	4g	und
4e	al-	.	.	4g	al-
.	.	8f#X	al-	.	.
4c	le	4e	le	4a	le
=35	=35	=35	=35	=35	=35
2G	Weis-	4d	Weis-	2b	Weis-
.	.	4d	heit	.	.
2d	heit	4e	ist	4b	heit
.	.	([4f#	kom-	4a	ist
=36	=36	=36	=36	=36	=36
2d	ist	4f#]	.	(4f#	kom-
.	.	4e	.	4g	.
2G	kom-	4d	.	2e)	.
.	.	4c)	.	.	.
=37	=37	=37	=37	=37	=37
2d	men,	2d	men,	4d,	men,
.	.	.	.	4g	den
4r	.	4r	.	4a	Aus-
4B	den	4d	den	4b	er-
!!LO:LB:g=original
=38	=38	=38	=38	=38	=38
4c	Aus-	4e	Aus-	2b	waehl-
4e	er-	4g	er-	.	.
4.d	waehl-	4.f#	waehl-	4g	ten
.	.	.	.	4a	zu
8d	ten	8e	ten	.	.
=39	=39	=39	=39	=39	=39
*M6/4	*	*M6/4	*	*M6/4	*
4d	zu	4d	zu	2f#	fom-
4d	from-	4d	from-	.	.
[1A	men._	4c#,	men,	2.e,	men,
.	.	4a	zu	.	.
.	.	4f#	from-	.	.
.	.	4e	men	4ee	zu
=40	=40	=40	=40	=40	=40
*M4/4	*	*M4/4	*	*M4/4	*
1A_	.	4a	zu	4cc#	from-
.	.	4f#	from-	4b,	men,
.	.	4e,	men,	4ee	zu
.	.	4a	zu	4cc#	from-
=41	=41	=41	=41	=41	=41
1A_	.	4f#	from-	4b,	men,
.	.	4e,	men,	4ee	zu
.	.	4a	zu	(4.cc#	from-
.	.	(4f#	from-	.	.
.	.	.	.	8ddL	.
=42	=42	=42	=42	=42	=42
1A]	.	4.e	.	8ee	.
.	.	.	.	8ff#J	.
.	.	.	.	2ee)	.
.	.	8f#L	.	.	.
.	.	8a	.	.	.
*	*	*^		*	*	*
.	.	8bJ)	8b)	.	.	.
.	.	4cc#	4a	men.	4ee	men.
*	*	*v	*v	*	*	*
==	==	==	==	==	==
*-	*-	*-	*-	*-	*-
!!!YOR: Bärenreiter-Ausgabe 676
!!!YOY: 1933
!!!EFL: 27/52
!!!URL-github: https://github.com/LucasHofmann/distler/blob/main/Jahrkreis/Distler_Jahrkreis_27_Wir-glauben-an-Gott-den-Vater.krn
!!!URL-pdf: https://imslp.eu/files/imglnks/euimg/7/7d/IMSLP834545-PMLP518834-5-jahrkreis-EA--original-paper-600dpi.pdf#page=50 First edition, Kassel: Bärenreiter, 1933. Plate BA 676.
!!!URL-imslp:https://imslp.org/wiki/Der_Jahrkreis,_Op.5_(Distler,_Hugo)#IMSLP834545
!!!system-decoration: [(s1,s2,s3)]
!!!ENC: Lucas Hofmann
!!!END: 2024/01/02
!!!title: @{OPR@@DE}, Op. @{OPS}, Nr. @{ONM}. <i>@{OTL@@DE}</i>
